X:35
T:Earls' chair, The
R:Reel
O:Scotland
O:Ireland
M:4/4
K:Bm
B3A BAFA|B2dB BAFB|AF~F2 DF~F2|AFdB ADFA|\
B2dB BAFA|B2dB BAFB|
AFAB defd\
|1 edef d3A:|2 edef d3f||\
|:~e3f d2df|edef dBA2|
~e3f dcde|fedB ADFA|\
~e3f eB~B2|gB~B2 defg|afbf afeg|fedB ADFA:|
